assets/1. P-Z/Womans sandal/Color/Womans.Sandal-color.svg

<svg width="100%" height="100%" viewBox="0 0 32 32" fill="none" xmlns="http://www.w3.org/2000/svg">
<g filter="url(#filter0_i_18_17288)">
<path d="M2.13281 18.9459H7.16406V29.0409C7.16406 29.5379 6.76112 29.9409 6.26406 29.9409H3.03281C2.53576 29.9409 2.13281 29.5379 2.13281 29.0409V18.9459Z" fill="url(#paint0_radial_18_17288)"/>
<path d="M2.13281 18.9459H7.16406V29.0409C7.16406 29.5379 6.76112 29.9409 6.26406 29.9409H3.03281C2.53576 29.9409 2.13281 29.5379 2.13281 29.0409V18.9459Z" fill="url(#paint1_linear_18_17288)"/>
<path d="M2.13281 18.9459H7.16406V29.0409C7.16406 29.5379 6.76112 29.9409 6.26406 29.9409H3.03281C2.53576 29.9409 2.13281 29.5379 2.13281 29.0409V18.9459Z" fill="url(#paint2_linear_18_17288)"/>
<path d="M2.13281 18.9459H7.16406V29.0409C7.16406 29.5379 6.76112 29.9409 6.26406 29.9409H3.03281C2.53576 29.9409 2.13281 29.5379 2.13281 29.0409V18.9459Z" fill="url(#paint3_radial_18_17288)"/>
<path d="M2.13281 18.9459H7.16406V29.0409C7.16406 29.5379 6.76112 29.9409 6.26406 29.9409H3.03281C2.53576 29.9409 2.13281 29.5379 2.13281 29.0409V18.9459Z" fill="url(#paint4_radial_18_17288)"/>
</g>
<g filter="url(#filter1_ii_18_17288)">
<path fill-rule="evenodd" clip-rule="evenodd" d="M7.55154 21.0189H4.13309C3.02837 21.0189 2.13281 20.1235 2.13281 19.0189V18.5189C2.13281 18.2428 2.3567 18.0189 2.63288 18.0189H7.55154C10.8657 18.0189 13.5524 20.7052 13.5524 24.0189V26.0283C13.5524 26.4977 13.933 26.8783 14.4025 26.8783H29.3671C29.6433 26.8783 29.8672 27.1022 29.8672 27.3783V28.1283C29.8672 29.0948 29.0836 29.8783 28.1169 29.8783H13.0523C11.6714 29.8783 10.552 28.759 10.552 27.3783V24.1127C10.552 22.3314 8.91111 21.0189 7.55154 21.0189Z" fill="url(#paint5_linear_18_17288)"/>
</g>
<path fill-rule="evenodd" clip-rule="evenodd" d="M7.55154 21.0189H4.13309C3.02837 21.0189 2.13281 20.1235 2.13281 19.0189V18.5189C2.13281 18.2428 2.3567 18.0189 2.63288 18.0189H7.55154C10.8657 18.0189 13.5524 20.7052 13.5524 24.0189V26.0283C13.5524 26.4977 13.933 26.8783 14.4025 26.8783H29.3671C29.6433 26.8783 29.8672 27.1022 29.8672 27.3783V28.1283C29.8672 29.0948 29.0836 29.8783 28.1169 29.8783H13.0523C11.6714 29.8783 10.552 28.759 10.552 27.3783V24.1127C10.552 22.3314 8.91111 21.0189 7.55154 21.0189Z" fill="url(#paint6_radial_18_17288)"/>
<path fill-rule="evenodd" clip-rule="evenodd" d="M7.55154 21.0189H4.13309C3.02837 21.0189 2.13281 20.1235 2.13281 19.0189V18.5189C2.13281 18.2428 2.3567 18.0189 2.63288 18.0189H7.55154C10.8657 18.0189 13.5524 20.7052 13.5524 24.0189V26.0283C13.5524 26.4977 13.933 26.8783 14.4025 26.8783H29.3671C29.6433 26.8783 29.8672 27.1022 29.8672 27.3783V28.1283C29.8672 29.0948 29.0836 29.8783 28.1169 29.8783H13.0523C11.6714 29.8783 10.552 28.759 10.552 27.3783V24.1127C10.552 22.3314 8.91111 21.0189 7.55154 21.0189Z" fill="url(#paint7_radial_18_17288)"/>
<g filter="url(#filter2_iii_18_17288)">
<path d="M19.5105 20.6459L15.4822 27.4502C14.831 28.5501 15.6238 29.9408 16.902 29.9408H25.0546C25.7449 29.9408 26.3046 29.3811 26.3046 28.6908V22.8747C26.3046 22.3702 25.9891 21.9197 25.5151 21.7471L21.0138 20.1082C20.4485 19.9024 19.8169 20.1283 19.5105 20.6459Z" fill="url(#paint8_linear_18_17288)"/>
</g>
<g filter="url(#filter3_f_18_17288)">
<rect x="24.7266" y="22.3783" width="0.875" height="6.53125" rx="0.4375" fill="url(#paint9_linear_18_17288)"/>
</g>
<g filter="url(#filter4_f_18_17288)">
<path d="M3.88281 18.7897H8.03906C10.2266 18.7897 12.8203 20.3971 12.8203 23.9721C12.8203 25.6064 12.8203 26.518 12.8203 27.0397C12.8203 27.3159 13.0442 27.5397 13.3203 27.5397H13.8516" stroke="url(#paint10_radial_18_17288)" stroke-width="0.5"/>
</g>
<defs>
<filter id="filter0_i_18_17288" x="2.13281" y="18.7959" width="5.03125" height="11.1449" filterUnits="userSpaceOnUse" color-interpolation-filters="sRGB">
<feFlood flood-opacity="0" result="BackgroundImageFix"/>
<feBlend mode="normal" in="SourceGraphic" in2="BackgroundImageFix" result="shape"/>
<feColorMatrix in="SourceAlpha" type="matrix" values="0 0 0 0 0 0 0 0 0 0 0 0 0 0 0 0 0 0 127 0" result="hardAlpha"/>
<feOffset dy="-0.15"/>
<feGaussianBlur stdDeviation="0.15"/>
<feComposite in2="hardAlpha" operator="arithmetic" k2="-1" k3="1"/>
<feColorMatrix type="matrix" values="0 0 0 0 0.847059 0 0 0 0 0.521569 0 0 0 0 0.584314 0 0 0 1 0"/>
<feBlend mode="normal" in2="shape" result="effect1_innerShadow_18_17288"/>
</filter>
<filter id="filter1_ii_18_17288" x="2.13281" y="17.7189" width="28.2344" height="12.1594" filterUnits="userSpaceOnUse" color-interpolation-filters="sRGB">
<feFlood flood-opacity="0" result="BackgroundImageFix"/>
<feBlend mode="normal" in="SourceGraphic" in2="BackgroundImageFix" result="shape"/>
<feColorMatrix in="SourceAlpha" type="matrix" values="0 0 0 0 0 0 0 0 0 0 0 0 0 0 0 0 0 0 127 0" result="hardAlpha"/>
<feOffset dy="-0.3"/>
<feGaussianBlur stdDeviation="0.25"/>
<feComposite in2="hardAlpha" operator="arithmetic" k2="-1" k3="1"/>
<feColorMatrix type="matrix" values="0 0 0 0 0.792157 0 0 0 0 0.364706 0 0 0 0 0.423529 0 0 0 1 0"/>
<feBlend mode="normal" in2="shape" result="effect1_innerShadow_18_17288"/>
<feColorMatrix in="SourceAlpha" type="matrix" values="0 0 0 0 0 0 0 0 0 0 0 0 0 0 0 0 0 0 127 0" result="hardAlpha"/>
<feOffset dx="0.5"/>
<feGaussianBlur stdDeviation="0.5"/>
<feComposite in2="hardAlpha" operator="arithmetic" k2="-1" k3="1"/>
<feColorMatrix type="matrix" values="0 0 0 0 0.780392 0 0 0 0 0.517647 0 0 0 0 0.360784 0 0 0 1 0"/>
<feBlend mode="normal" in2="effect1_innerShadow_18_17288" result="effect2_innerShadow_18_17288"/>
</filter>
<filter id="filter2_iii_18_17288" x="15.2495" y="19.7826" width="11.1552" height="11.1581" filterUnits="userSpaceOnUse" color-interpolation-filters="sRGB">
<feFlood flood-opacity="0" result="BackgroundImageFix"/>
<feBlend mode="normal" in="SourceGraphic" in2="BackgroundImageFix" result="shape"/>
<feColorMatrix in="SourceAlpha" type="matrix" values="0 0 0 0 0 0 0 0 0 0 0 0 0 0 0 0 0 0 127 0" result="hardAlpha"/>
<feOffset dx="0.1" dy="1"/>
<feGaussianBlur stdDeviation="0.75"/>
<feComposite in2="hardAlpha" operator="arithmetic" k2="-1" k3="1"/>
<feColorMatrix type="matrix" values="0 0 0 0 0.847059 0 0 0 0 0.137255 0 0 0 0 0.313726 0 0 0 1 0"/>
<feBlend mode="normal" in2="shape" result="effect1_innerShadow_18_17288"/>
<feColorMatrix in="SourceAlpha" type="matrix" values="0 0 0 0 0 0 0 0 0 0 0 0 0 0 0 0 0 0 127 0" result="hardAlpha"/>
<feOffset dy="-0.25"/>
<feGaussianBlur stdDeviation="0.5"/>
<feComposite in2="hardAlpha" operator="arithmetic" k2="-1" k3="1"/>
<feColorMatrix type="matrix" values="0 0 0 0 0.811765 0 0 0 0 0.133333 0 0 0 0 0.533333 0 0 0 1 0"/>
<feBlend mode="normal" in2="effect1_innerShadow_18_17288" result="effect2_innerShadow_18_17288"/>
<feColorMatrix in="SourceAlpha" type="matrix" values="0 0 0 0 0 0 0 0 0 0 0 0 0 0 0 0 0 0 127 0" result="hardAlpha"/>
<feOffset dy="0.1"/>
<feGaussianBlur stdDeviation="0.15"/>
<feComposite in2="hardAlpha" operator="arithmetic" k2="-1" k3="1"/>
<feColorMatrix type="matrix" values="0 0 0 0 0.737255 0 0 0 0 0.184314 0 0 0 0 0.305882 0 0 0 1 0"/>
<feBlend mode="normal" in2="effect2_innerShadow_18_17288" result="effect3_innerShadow_18_17288"/>
</filter>
<filter id="filter3_f_18_17288" x="23.7266" y="21.3783" width="2.875" height="8.53125" filterUnits="userSpaceOnUse" color-interpolation-filters="sRGB">
<feFlood flood-opacity="0" result="BackgroundImageFix"/>
<feBlend mode="normal" in="SourceGraphic" in2="BackgroundImageFix" result="shape"/>
<feGaussianBlur stdDeviation="0.5" result="effect1_foregroundBlur_18_17288"/>
</filter>
<filter id="filter4_f_18_17288" x="3.38281" y="18.0397" width="10.9688" height="10.25" filterUnits="userSpaceOnUse" color-interpolation-filters="sRGB">
<feFlood flood-opacity="0" result="BackgroundImageFix"/>
<feBlend mode="normal" in="SourceGraphic" in2="BackgroundImageFix" result="shape"/>
<feGaussianBlur stdDeviation="0.25" result="effect1_foregroundBlur_18_17288"/>
</filter>
<radialGradient id="paint0_radial_18_17288" cx="0" cy="0" r="1" gradientUnits="userSpaceOnUse" gradientTransform="translate(4.8552 28.9147) rotate(-90) scale(8.82558 12.8465)">
<stop offset="0.0888031" stop-color="#F6BD90"/>
<stop offset="1" stop-color="#DE8452"/>
</radialGradient>
<linearGradient id="paint1_linear_18_17288" x1="1.60156" y1="26.1283" x2="3.44531" y2="26.1908" gradientUnits="userSpaceOnUse">
<stop offset="0.129699" stop-color="#9E6845"/>
<stop offset="1" stop-color="#B88A66" stop-opacity="0"/>
</linearGradient>
<linearGradient id="paint2_linear_18_17288" x1="7.75781" y1="29.5658" x2="6.60156" y2="29.5658" gradientUnits="userSpaceOnUse">
<stop stop-color="#DA7442"/>
<stop offset="1" stop-color="#E49160" stop-opacity="0"/>
</linearGradient>
<radialGradient id="paint3_radial_18_17288" cx="0" cy="0" r="1" gradientUnits="userSpaceOnUse" gradientTransform="translate(2.75781 27.5971) rotate(-76.6024) scale(8.15956 12.979)">
<stop offset="0.762348" stop-color="#BA4632" stop-opacity="0"/>
<stop offset="0.973293" stop-color="#BA4632"/>
</radialGradient>
<radialGradient id="paint4_radial_18_17288" cx="0" cy="0" r="1" gradientUnits="userSpaceOnUse" gradientTransform="translate(6.10156 29.9409) rotate(-90) scale(7.06253 1.71875)">
<stop stop-color="#FFD8A6"/>
<stop offset="1" stop-color="#F0B88C" stop-opacity="0"/>
</radialGradient>
<linearGradient id="paint5_linear_18_17288" x1="4.87929" y1="20.0658" x2="29.4756" y2="29.3493" gradientUnits="userSpaceOnUse">
<stop offset="0.372438" stop-color="#EFB383"/>
<stop offset="1" stop-color="#FFC08C"/>
</linearGradient>
<radialGradient id="paint6_radial_18_17288" cx="0" cy="0" r="1" gradientUnits="userSpaceOnUse" gradientTransform="translate(16.5703 29.0033) rotate(158.199) scale(4.03887 5.98838)">
<stop offset="0.198444" stop-color="#D4794D"/>
<stop offset="1" stop-color="#D4794D" stop-opacity="0"/>
</radialGradient>
<radialGradient id="paint7_radial_18_17288" cx="0" cy="0" r="1" gradientUnits="userSpaceOnUse" gradientTransform="translate(30.0703 26.722) rotate(143.556) scale(2.52507 0.993972)">
<stop stop-color="#FFD78F"/>
<stop offset="1" stop-color="#FFD78F" stop-opacity="0"/>
</radialGradient>
<linearGradient id="paint8_linear_18_17288" x1="23.6952" y1="21.2533" x2="20.2577" y2="30.222" gradientUnits="userSpaceOnUse">
<stop stop-color="#E3346A"/>
<stop offset="1" stop-color="#D91E95"/>
</linearGradient>
<linearGradient id="paint9_linear_18_17288" x1="25.1641" y1="22.3783" x2="25.1641" y2="28.9095" gradientUnits="userSpaceOnUse">
<stop stop-color="#EC506C"/>
<stop offset="0.848781" stop-color="#ED5381"/>
</linearGradient>
<radialGradient id="paint10_radial_18_17288" cx="0" cy="0" r="1" gradientUnits="userSpaceOnUse" gradientTransform="translate(12.8516 19.6283) rotate(125.8) scale(6.35736 10.1761)">
<stop offset="0.13536" stop-color="#FFD694"/>
<stop offset="1" stop-color="#FFD694" stop-opacity="0"/>
</radialGradient>
</defs>
</svg>

<svg width="100%" height="100%" viewBox="0 0 32 32" xmlns="http://www.w3.org/2000/svg"><g filter="url(#a)"><path fill="url(#b)" d="M2.133 18.946h5.031V29.04a.9.9 0 0 1-.9.9H3.033a.9.9 0 0 1-.9-.9z"/><path fill="url(#c)" d="M2.133 18.946h5.031V29.04a.9.9 0 0 1-.9.9H3.033a.9.9 0 0 1-.9-.9z"/><path fill="url(#d)" d="M2.133 18.946h5.031V29.04a.9.9 0 0 1-.9.9H3.033a.9.9 0 0 1-.9-.9z"/><path fill="url(#e)" d="M2.133 18.946h5.031V29.04a.9.9 0 0 1-.9.9H3.033a.9.9 0 0 1-.9-.9z"/><path fill="url(#f)" d="M2.133 18.946h5.031V29.04a.9.9 0 0 1-.9.9H3.033a.9.9 0 0 1-.9-.9z"/></g><g filter="url(#g)"><path fill="url(#h)" fill-rule="evenodd" d="M7.552 21.019H4.133a2 2 0 0 1-2-2v-.5a.5.5 0 0 1 .5-.5h4.919a6 6 0 0 1 6 6v2.01c0 .469.381.85.85.85h14.965a.5.5 0 0 1 .5.5v.75a1.75 1.75 0 0 1-1.75 1.75H13.052a2.5 2.5 0 0 1-2.5-2.5v-3.266c0-1.782-1.64-3.094-3-3.094" clip-rule="evenodd"/></g><path fill="url(#i)" fill-rule="evenodd" d="M7.552 21.019H4.133a2 2 0 0 1-2-2v-.5a.5.5 0 0 1 .5-.5h4.919a6 6 0 0 1 6 6v2.01c0 .469.381.85.85.85h14.965a.5.5 0 0 1 .5.5v.75a1.75 1.75 0 0 1-1.75 1.75H13.052a2.5 2.5 0 0 1-2.5-2.5v-3.266c0-1.782-1.64-3.094-3-3.094" clip-rule="evenodd"/><path fill="url(#j)" fill-rule="evenodd" d="M7.552 21.019H4.133a2 2 0 0 1-2-2v-.5a.5.5 0 0 1 .5-.5h4.919a6 6 0 0 1 6 6v2.01c0 .469.381.85.85.85h14.965a.5.5 0 0 1 .5.5v.75a1.75 1.75 0 0 1-1.75 1.75H13.052a2.5 2.5 0 0 1-2.5-2.5v-3.266c0-1.782-1.64-3.094-3-3.094" clip-rule="evenodd"/><g filter="url(#k)"><path fill="url(#l)" d="m19.51 20.646-4.028 6.804a1.65 1.65 0 0 0 1.42 2.49h8.153c.69 0 1.25-.559 1.25-1.25v-5.815a1.2 1.2 0 0 0-.79-1.128l-4.501-1.639a1.25 1.25 0 0 0-1.503.538"/></g><g filter="url(#m)"><rect width=".875" height="6.531" x="24.727" y="22.378" fill="url(#n)" rx=".438"/></g><g filter="url(#o)"><path stroke="url(#p)" stroke-width=".5" d="M3.883 18.79h4.156c2.188 0 4.781 1.607 4.781 5.182v3.068a.5.5 0 0 0 .5.5h.532"/></g><defs><radialGradient id="b" cx="0" cy="0" r="1" gradientTransform="matrix(0 -8.82558 12.8465 0 4.855 28.915)" gradientUnits="userSpaceOnUse"><stop offset=".089" stop-color="#F6BD90"/><stop offset="1" stop-color="#DE8452"/></radialGradient><radialGradient id="e" cx="0" cy="0" r="1" gradientTransform="matrix(1.89063 -7.9375 12.62578 3.00733 2.758 27.597)" gradientUnits="userSpaceOnUse"><stop offset=".762" stop-color="#BA4632" stop-opacity="0"/><stop offset=".973" stop-color="#BA4632"/></radialGradient><radialGradient id="f" cx="0" cy="0" r="1" gradientTransform="matrix(0 -7.06253 1.71875 0 6.102 29.94)" gradientUnits="userSpaceOnUse"><stop stop-color="#FFD8A6"/><stop offset="1" stop-color="#F0B88C" stop-opacity="0"/></radialGradient><radialGradient id="i" cx="0" cy="0" r="1" gradientTransform="rotate(158.199 5.492 16.097)scale(4.03887 5.98838)" gradientUnits="userSpaceOnUse"><stop offset=".198" stop-color="#D4794D"/><stop offset="1" stop-color="#D4794D" stop-opacity="0"/></radialGradient><radialGradient id="j" cx="0" cy="0" r="1" gradientTransform="rotate(143.556 10.637 18.31)scale(2.52507 .99397)" gradientUnits="userSpaceOnUse"><stop stop-color="#FFD78F"/><stop offset="1" stop-color="#FFD78F" stop-opacity="0"/></radialGradient><radialGradient id="p" cx="0" cy="0" r="1" gradientTransform="rotate(125.8 1.404 13.102)scale(6.35736 10.1761)" gradientUnits="userSpaceOnUse"><stop offset=".135" stop-color="#FFD694"/><stop offset="1" stop-color="#FFD694" stop-opacity="0"/></radialGradient><linearGradient id="c" x1="1.602" x2="3.445" y1="26.128" y2="26.191" gradientUnits="userSpaceOnUse"><stop offset=".13" stop-color="#9E6845"/><stop offset="1" stop-color="#B88A66" stop-opacity="0"/></linearGradient><linearGradient id="d" x1="7.758" x2="6.602" y1="29.566" y2="29.566" gradientUnits="userSpaceOnUse"><stop stop-color="#DA7442"/><stop offset="1" stop-color="#E49160" stop-opacity="0"/></linearGradient><linearGradient id="h" x1="4.879" x2="29.476" y1="20.066" y2="29.349" gradientUnits="userSpaceOnUse"><stop offset=".372" stop-color="#EFB383"/><stop offset="1" stop-color="#FFC08C"/></linearGradient><linearGradient id="l" x1="23.695" x2="20.258" y1="21.253" y2="30.222" gradientUnits="userSpaceOnUse"><stop stop-color="#E3346A"/><stop offset="1" stop-color="#D91E95"/></linearGradient><linearGradient id="n" x1="25.164" x2="25.164" y1="22.378" y2="28.91" gradientUnits="userSpaceOnUse"><stop stop-color="#EC506C"/><stop offset=".849" stop-color="#ED5381"/></linearGradient><filter id="a" width="5.031" height="11.145" x="2.133" y="18.796" color-interpolation-filters="sRGB" filterUnits="userSpaceOnUse"><feFlood flood-opacity="0" result="BackgroundImageFix"/><feBlend in="SourceGraphic" in2="BackgroundImageFix" result="shape"/><feColorMatrix in="SourceAlpha" result="hardAlpha" values="0 0 0 0 0 0 0 0 0 0 0 0 0 0 0 0 0 0 127 0"/><feOffset dy="-.15"/><feGaussianBlur stdDeviation=".15"/><feComposite in2="hardAlpha" k2="-1" k3="1" operator="arithmetic"/><feColorMatrix values="0 0 0 0 0.847059 0 0 0 0 0.521569 0 0 0 0 0.584314 0 0 0 1 0"/><feBlend in2="shape" result="effect1_innerShadow_18_17288"/></filter><filter id="g" width="28.234" height="12.159" x="2.133" y="17.719" color-interpolation-filters="sRGB" filterUnits="userSpaceOnUse"><feFlood flood-opacity="0" result="BackgroundImageFix"/><feBlend in="SourceGraphic" in2="BackgroundImageFix" result="shape"/><feColorMatrix in="SourceAlpha" result="hardAlpha" values="0 0 0 0 0 0 0 0 0 0 0 0 0 0 0 0 0 0 127 0"/><feOffset dy="-.3"/><feGaussianBlur stdDeviation=".25"/><feComposite in2="hardAlpha" k2="-1" k3="1" operator="arithmetic"/><feColorMatrix values="0 0 0 0 0.792157 0 0 0 0 0.364706 0 0 0 0 0.423529 0 0 0 1 0"/><feBlend in2="shape" result="effect1_innerShadow_18_17288"/><feColorMatrix in="SourceAlpha" result="hardAlpha" values="0 0 0 0 0 0 0 0 0 0 0 0 0 0 0 0 0 0 127 0"/><feOffset dx=".5"/><feGaussianBlur stdDeviation=".5"/><feComposite in2="hardAlpha" k2="-1" k3="1" operator="arithmetic"/><feColorMatrix values="0 0 0 0 0.780392 0 0 0 0 0.517647 0 0 0 0 0.360784 0 0 0 1 0"/><feBlend in2="effect1_innerShadow_18_17288" result="effect2_innerShadow_18_17288"/></filter><filter id="k" width="11.155" height="11.158" x="15.249" y="19.783" color-interpolation-filters="sRGB" filterUnits="userSpaceOnUse"><feFlood flood-opacity="0" result="BackgroundImageFix"/><feBlend in="SourceGraphic" in2="BackgroundImageFix" result="shape"/><feColorMatrix in="SourceAlpha" result="hardAlpha" values="0 0 0 0 0 0 0 0 0 0 0 0 0 0 0 0 0 0 127 0"/><feOffset dx=".1" dy="1"/><feGaussianBlur stdDeviation=".75"/><feComposite in2="hardAlpha" k2="-1" k3="1" operator="arithmetic"/><feColorMatrix values="0 0 0 0 0.847059 0 0 0 0 0.137255 0 0 0 0 0.313726 0 0 0 1 0"/><feBlend in2="shape" result="effect1_innerShadow_18_17288"/><feColorMatrix in="SourceAlpha" result="hardAlpha" values="0 0 0 0 0 0 0 0 0 0 0 0 0 0 0 0 0 0 127 0"/><feOffset dy="-.25"/><feGaussianBlur stdDeviation=".5"/><feComposite in2="hardAlpha" k2="-1" k3="1" operator="arithmetic"/><feColorMatrix values="0 0 0 0 0.811765 0 0 0 0 0.133333 0 0 0 0 0.533333 0 0 0 1 0"/><feBlend in2="effect1_innerShadow_18_17288" result="effect2_innerShadow_18_17288"/><feColorMatrix in="SourceAlpha" result="hardAlpha" values="0 0 0 0 0 0 0 0 0 0 0 0 0 0 0 0 0 0 127 0"/><feOffset dy=".1"/><feGaussianBlur stdDeviation=".15"/><feComposite in2="hardAlpha" k2="-1" k3="1" operator="arithmetic"/><feColorMatrix values="0 0 0 0 0.737255 0 0 0 0 0.184314 0 0 0 0 0.305882 0 0 0 1 0"/><feBlend in2="effect2_innerShadow_18_17288" result="effect3_innerShadow_18_17288"/></filter><filter id="m" width="2.875" height="8.531" x="23.727" y="21.378" color-interpolation-filters="sRGB" filterUnits="userSpaceOnUse"><feFlood flood-opacity="0" result="BackgroundImageFix"/><feBlend in="SourceGraphic" in2="BackgroundImageFix" result="shape"/><feGaussianBlur result="effect1_foregroundBlur_18_17288" stdDeviation=".5"/></filter><filter id="o" width="10.969" height="10.25" x="3.383" y="18.04" color-interpolation-filters="sRGB" filterUnits="userSpaceOnUse"><feFlood flood-opacity="0" result="BackgroundImageFix"/><feBlend in="SourceGraphic" in2="BackgroundImageFix" result="shape"/><feGaussianBlur result="effect1_foregroundBlur_18_17288" stdDeviation=".25"/></filter></defs></svg>
